storage/app/icons/phosphoricons/duotone/barcode-duotone.svg

<svg xmlns="http://www.w3.org/2000/svg" fill="currentColor" viewBox="0 0 256 256"><path d="M224 48v160H32V48Z" opacity=".2"/><path d="M232 48v40a8 8 0 0 1-16 0V56h-32a8 8 0 0 1 0-16h40a8 8 0 0 1 8 8M72 200H40v-32a8 8 0 0 0-16 0v40a8 8 0 0 0 8 8h40a8 8 0 0 0 0-16m152-40a8 8 0 0 0-8 8v32h-32a8 8 0 0 0 0 16h40a8 8 0 0 0 8-8v-40a8 8 0 0 0-8-8M32 96a8 8 0 0 0 8-8V56h32a8 8 0 0 0 0-16H32a8 8 0 0 0-8 8v40a8 8 0 0 0 8 8m48-16a8 8 0 0 0-8 8v80a8 8 0 0 0 16 0V88a8 8 0 0 0-8-8m104 88V88a8 8 0 0 0-16 0v80a8 8 0 0 0 16 0m-40-88a8 8 0 0 0-8 8v80a8 8 0 0 0 16 0V88a8 8 0 0 0-8-8m-32 0a8 8 0 0 0-8 8v80a8 8 0 0 0 16 0V88a8 8 0 0 0-8-8"/></svg>

<svg xmlns="http://www.w3.org/2000/svg" viewBox="0 0 256 256" fill="currentColor"><path d="M224,48V208H32V48Z" opacity="0.2"/><path d="M232,48V88a8,8,0,0,1-16,0V56H184a8,8,0,0,1,0-16h40A8,8,0,0,1,232,48ZM72,200H40V168a8,8,0,0,0-16,0v40a8,8,0,0,0,8,8H72a8,8,0,0,0,0-16Zm152-40a8,8,0,0,0-8,8v32H184a8,8,0,0,0,0,16h40a8,8,0,0,0,8-8V168A8,8,0,0,0,224,160ZM32,96a8,8,0,0,0,8-8V56H72a8,8,0,0,0,0-16H32a8,8,0,0,0-8,8V88A8,8,0,0,0,32,96ZM80,80a8,8,0,0,0-8,8v80a8,8,0,0,0,16,0V88A8,8,0,0,0,80,80Zm104,88V88a8,8,0,0,0-16,0v80a8,8,0,0,0,16,0ZM144,80a8,8,0,0,0-8,8v80a8,8,0,0,0,16,0V88A8,8,0,0,0,144,80Zm-32,0a8,8,0,0,0-8,8v80a8,8,0,0,0,16,0V88A8,8,0,0,0,112,80Z"/></svg>
